X:1
T:Some Day, Somewhere
T:Some Day, Somewhere
T:George F. Rosche
T:Irma B. Matthews, 1909
T:Public Domain Courtesy of the Cyber Hymnal™
T:Public Domain Courtesy of the Cyber Hymnal™
C:George F. Rosche
Z:Public Domain
Z:Courtesy of the Cyber Hymnal™
%%score ( 1 2 ) ( 3 4 )
L:1/8
Q:1/4=110
M:4/4
K:F
V:1 treble 
V:2 treble 
V:3 bass 
V:4 bass 
V:1
"^Prelude" c2 | [ca]3 [ca] [db][db][df][_dg] | [ca]6 [ca]2 | %3
w: ~|~ ~ ~ ~ ~ ~|~ ~|
w: ~|~ ~ ~ ~ ~ ~|~ ~|
w: ~|~ ~ ~ ~ ~ ~|~ ~|
 [Bg]"^riten."[Af][^Ge][Gd] [Ac][=GB][FA][EG] | F6 |: C2 | [CA]3 [CA] [DB][DB][DF][_DG] | %7
w: ~ ~ ~ ~ ~ ~ ~ ~|~|~|~ ~ ~ 1.~Some day the|
w: ~ ~ ~ ~ ~ ~ ~ ~|~|~|~ ~ ~ 2.~Some day we’ll|
w: ~ ~ ~ ~ ~ ~ ~ ~|~|~|~ ~ ~ 3.~Some day our|
 [CA]6 [A,F]2 | [B,G]3 [A,^F] [CA][B,G][B,E][B,D] | [A,C]6 C2 | [CA]3 [_Ec] [DB][DB][DF][_DG] | %11
w: jour- ney|will be done, Some- where we’ll|find a|prom- ised rest; Some day all|
w: meet our|loved and lost, Some- where in|some far|bright- er land; Some day we’ll|
w: Lord will|call us home, Some- where we’ll|lay our|bur- den down; Some day, if|
 [CA]6 [CA]2 | [=B,G]3 [DG] [FG][FG][FA][F=B] | !fermata![Ec]6 ||"^Refrain" C2 | [DF]6 [DF]2 | %16
w: sor- row|turn to joy, Some- where, some|day|we|shall be|
w: sing the|new, new song, And join with|praise|an|an- gel|
w: we have|faith- ful been, Some- where we|will|re-|ceive a|
 [^CA]6 [DA]2 | [EG]3 [^D^F] [EG][=FA][GB][Ec] | [FA]6 [Ac]2 | [^Gd]6 [Ac]2 | [FA]6 [FA]2 | %21
w: blest. *|||||
w: band. Some|day, some day, Some- where, the|place we|can- not|see; Some|
w: crown. *|||||
 [FG]3 [^FA] [GB][GB][=FA][EG] | [CF]6"^Play 3 times" :| %23
w: ||
w: day, some day, Some- where the|Sav-|
w: ||
V:2
 x2 | x8 | x8 | x8 | FCD_D C2 |: C2 | x8 | x8 | x8 | x6 C2 | x8 | x8 | x8 | x6 || C2 | x8 | x8 | %17
 x8 | x8 | x8 | x8 | x8 | x6 :| %23
V:3
 z2 | z F,A,C B,G,A,B, | C4 [F,A,]2 z2 | [CE][DF][=B,F][B,F] [CF][G,D]C[C,_B,] | A,2 B,2 A,2 |: %5
 z2 | ([F,,F,]2 [F,A,]2) [B,,F,]2 [F,B,]2 | ([F,,F,]2 [F,A,]2 [C,F,]2) z2 | %8
 ([C,,C,]2 [E,G,]2) [C,,C,]2 [C,G,]2 | ([F,,F,]2 [F,A,]2 [C,F,]2) z2 | %10
 ([F,,F,]2 [F,A,]2) [B,,F,]2 [F,B,]2 | ([F,,F,]2 [F,A,]2 [C,F,]2) z2 | %12
 ([G,,G,]2 [D,G,]2) [D,G,=B,]2 [G,B,][D,G,] | (C2 [B,D][A,C] [G,B,]2) || [F,A,]2 | %15
 [D,A,]6 [D,A,]2 | [A,,A,]6 [F,A,]2 | [C,B,]3 [C,A,] [C,B,][C,C][C,D][C,C] | [F,C]6 [F,C]2 | %19
 [F,=B,]6 [F,C]2 | [F,C]6 [D,D]2 | [B,D]3 [A,D] [G,D][G,D]C[C,B,] | [F,A,]6"^Play 3 times" :| %23
V:4
 x2 | x8 | F,C,=B,,C, x4 | x8 | F,6 |: x2 | x8 | x8 | x8 | x8 | x8 | x8 | x8 | C,6 || x2 | x8 | %16
 x8 | x8 | x8 | x8 | x8 | x6 C x | x6 :| %23

